assets/home-tab/Asset/invitetopayzapp.svg

<svg width="24" height="24" viewBox="0 0 24 24" fill="none" xmlns="http://www.w3.org/2000/svg">
<path d="M7 5.43183C7 5.22034 7 5.11459 7.00725 5.0254C7.09479 3.94915 7.94915 3.09479 9.0254 3.00725C9.11459 3 9.22034 3 9.43183 3L9.72186 3C10.8377 3 11.8215 3.73148 12.1429 4.8C12.4642 3.73148 13.4481 3 14.5639 3L14.8641 3C15.0661 3 15.1671 3 15.2523 3.00662C16.3349 3.0907 17.195 3.95078 17.2791 5.03341C17.2857 5.11862 17.2857 5.21961 17.2857 5.4216C17.2857 5.56145 17.2857 5.63137 17.2831 5.70704C17.2523 6.60398 16.9066 7.55659 16.3551 8.26459C16.3086 8.32433 16.2792 8.35952 16.2204 8.42991C15.1821 9.67225 14.316 10.5322 12.863 11.5265C12.6173 11.6946 12.4944 11.7787 12.3432 11.8173C12.2179 11.8493 12.0615 11.8518 11.9352 11.8239C11.7829 11.7903 11.6577 11.7105 11.4073 11.5509C9.85125 10.5588 8.96719 9.69091 7.96724 8.41157C7.90594 8.33314 7.87529 8.29393 7.81896 8.21492C7.35244 7.56065 7.03963 6.65247 7.00427 5.84969C7 5.75275 7 5.66735 7 5.49654V5.43183Z" fill="#1F71CF"/>
<path fill-rule="evenodd" clip-rule="evenodd" d="M22.0976 13.9901C22.4257 13.5762 22.3862 12.9824 22.0127 12.609C21.6903 12.2865 21.1969 12.2084 20.7906 12.4153L15.1628 15.2818L15.625 13.125H7.36231C6.12662 13.125 4.89678 13.2947 3.70724 13.6292L2.32041 14.0193C1.83522 14.1557 1.5 14.5983 1.5 15.1023V18.9191C1.5 19.8133 2.49291 20.3501 3.24112 19.8604L4.11418 19.2889C4.63906 18.9454 5.28353 18.8365 5.89212 18.9887L13.0399 20.7756C13.6149 20.9194 14.2254 20.832 14.7304 20.5217C17.9415 18.548 19.7577 16.942 22.0976 13.9901Z" fill="#1F71CF"/>
<path d="M10.5625 12L14.7328 12C16.1575 12 17.3125 13.155 17.3125 14.5797C17.3125 16.1738 15.8811 17.3864 14.3087 17.1244L10.5625 16.5L10.5625 12Z" fill="#DCEFFF"/>
<path d="M10.5625 13.125H14.5842C15.4697 13.125 16.1875 13.8428 16.1875 14.7283C16.1875 15.6769 15.3685 16.4181 14.4246 16.3237L10.5625 15.9375L10.5625 13.125Z" fill="#1F71CF"/>
</svg>

<svg xmlns="http://www.w3.org/2000/svg" width="24" height="24" fill="none" viewBox="0 0 24 24"><path fill="#1f71cf" d="M7 5.432c0-.212 0-.317.007-.407a2.204 2.204 0 0 1 2.018-2.018C9.115 3 9.22 3 9.432 3h.29c1.116 0 2.1.731 2.42 1.8A2.53 2.53 0 0 1 14.565 3h.3c.202 0 .303 0 .388.007a2.204 2.204 0 0 1 2.027 2.026c.007.086.007.187.007.389 0 .14 0 .21-.003.285a4.56 4.56 0 0 1-.928 2.558c-.046.06-.076.095-.135.165-1.038 1.242-1.904 2.102-3.357 3.097-.246.168-.369.252-.52.29a.9.9 0 0 1-.408.007c-.152-.034-.277-.114-.528-.273-1.556-.992-2.44-1.86-3.44-3.14-.061-.078-.092-.117-.148-.196a4.66 4.66 0 0 1-.815-2.365C7 5.753 7 5.667 7 5.497z"/><path fill="#1f71cf" fill-rule="evenodd" d="M22.098 13.99a1.04 1.04 0 0 0-.085-1.381 1.05 1.05 0 0 0-1.222-.194l-5.628 2.867.462-2.157H7.362c-1.235 0-2.465.17-3.655.504l-1.387.39c-.485.137-.82.58-.82 1.083v3.817c0 .894.993 1.431 1.741.941l.873-.571a2.25 2.25 0 0 1 1.778-.3l7.148 1.787a2.2 2.2 0 0 0 1.69-.254c3.212-1.974 5.028-3.58 7.368-6.532" clip-rule="evenodd"/><path fill="#dcefff" d="M10.563 12h4.17a2.58 2.58 0 1 1-.424 5.124l-3.746-.624z"/><path fill="#1f71cf" d="M10.563 13.125h4.021a1.603 1.603 0 1 1-.16 3.199l-3.861-.387z"/></svg>
